X:483
T:B483-  Upon St. David's Day
S:See ZN2711, "The Welsh-Men's Glory" for possible original.
Q:1/4=120
L:1/4
M:6/4
K:C
G,|C3/2D/CD3/2E/D|E3/2D/EC2c|B2cdAc|B3G2E|\
C3/2D/CD3/2D/D|E3/2D/EC2c|AcAB/c/dB|c3C2||e|\
e3/2f/ggfe|f3/2g/aagf|defABc|B3G2F|\
E3/2F/GABc|EFGABc|D3/2E/FE3/2D/C|(C3C2)|]
